X:1
T:Title
%%score { ( 1 2 ) | ( 3 4 ) }
L:1/8
M:4/4
K:F
V:1 treble nm="Grand Piano"
V:2 treble 
V:3 bass 
V:4 bass 
V:1
 z4 z2[Q:1/4=100] z G | A2 A2 A2 A2 | B2 A2 AG F2 | [FA]2 [EG]2 [EG]4 |[M:3/4] [GB]2 A2 A2 | %5
[M:1/4] z G |[M:4/4] A2 A2 A2 A2 | B2 A2 AG F2 |[M:5/4] [EG]2 [EG]2 [Ec]6 |[M:7/8] E2 G2 F3 | %10
[M:1/4] F2 |[M:4/4] [Fd]2 [Fd]2 [Fd]3 [Fd] | d2 c2 c3 A | [Ec]2 [EB]2 [EB]2 [EG]2 | %14
[M:3/4] [GB]2 A2 A2 |[M:1/4] F2 |[M:4/4] [Fd]3 [Fd] [Fd]2 [Fd]2 | d2 c2 c4 | c2 G2 c4 | %19
[M:7/8] =B2 d2 [Ec]3 |[M:1/4] z G |[M:4/4] A2 A2 A2 A2 | B2 A2 AG F2 | [FA]2 [EG]2 [EG]4 | %24
[M:3/4] [GB]2 A2 A2 |[M:1/4] z G |[M:4/4] A2 A2 A2 A2 | B2 A2 AG F2 |[M:5/4] [EG]2 [EG]2 [Ec]6 | %29
[M:15/8] E2 G-G F2- F z2 z6 |] %30
V:2
 z4 z2 F2 | x8 | x8 | x8 |[M:3/4] x6 |[M:1/4] F2 |[M:4/4] x8 | x8 |[M:5/4] x10 |[M:7/8] x7 | %10
[M:1/4] x2 |[M:4/4] x8 | x8 | x8 |[M:3/4] x6 |[M:1/4] x2 |[M:4/4] x8 | x8 | x8 |[M:7/8] x7 | %20
[M:1/4] F2 |[M:4/4] x8 | x8 | x8 |[M:3/4] x6 |[M:1/4] F2 |[M:4/4] x8 | x8 |[M:5/4] x10 | %29
[M:15/8] x15 |] %30
V:3
 z4 z2 A,B, | [F,CF]2 [F,CF]2 [F,CF]2[K:treble] [F,CF]2 | z4 .C2[K:bass] z2 | %3
 [C,C]2 [C,C]2 [C,C]4 |[M:3/4] [F,C]2 [F,CF]2 [F,CF]2 |[M:1/4] A, z | %6
[M:4/4] [F,CF]2 [F,CF]2 [F,CF]2 [F,CF]2 | z4 .C2 z2 |[M:5/4] [C,C]2 [C,C]2 [C,G,]6 | %9
[M:7/8] [C,G,C]2 [C,B,C]2 [F,A,C]3 |[M:1/4] [F,A,]2 |[M:4/4] [B,,B,]2 [B,,B,]2 [B,,B,]3 [B,,B,] | %12
 [F,B,F]2 [F,A,F]2 [F,A,F]3 [F,A,F] | [C,G,]2 [C,G,]2 [C,G,]2 [C,C]2 | %14
[M:3/4] [F,C]2 [F,CF]2 [F,CF]2 |[M:1/4] [F,A,]2 |[M:4/4] [B,,B,]3 [B,,B,] [B,,B,]2 [B,,B,]2 | %17
 [F,B,F]2 [F,A,F]2 [F,A,F]4 | [G,E]2 [G,CE]2 [G,CE]4 |[M:7/8] [G,DF]2 [G,=B,F]2[K:bass] [C,G,]3 | %20
[M:1/4] A, z |[M:4/4] [F,CF]2 [F,CF]2[K:treble] [F,CF]2 [F,CF]2 | z4 .C2[K:bass] z2 | %23
 [C,C]2 [C,C]2 [C,C]4 |[M:3/4] [F,C]2 [F,CF]2 [F,CF]2 |[M:1/4] A, z | %26
[M:4/4] [F,CF]2 [F,CF]2 [F,CF]2 [F,CF]2 | z4 .C2 z2 |[M:5/4] [C,C]2 [C,C]2 [C,G,]6 | %29
[M:15/8] [C,G,C]2 [C,B,C]-[C,B,C] [F,A,C]2- [F,A,C] z2 z6 |] %30
V:4
 z4 z2 F,2 | x6[K:treble] x2 | [DF]2 [F,CF]2 [F,F]-[F,B,F][K:bass] [F,A,]2 | x8 |[M:3/4] x6 | %5
[M:1/4] F,-[F,B,] |[M:4/4] x8 | [F,DF]2 [F,CF]2 [F,F]-[F,B,F] [F,A,]2 |[M:5/4] x10 |[M:7/8] x7 | %10
[M:1/4] x2 |[M:4/4] x8 | x8 | x8 |[M:3/4] x6 |[M:1/4] x2 |[M:4/4] x8 | x8 | x8 | %19
[M:7/8] x4[K:bass] x3 |[M:1/4] F,-[F,B,] |[M:4/4] x4[K:treble] x4 | %22
 [DF]2 [F,CF]2 [F,F]-[F,B,F][K:bass] [F,A,]2 | x8 |[M:3/4] x6 |[M:1/4] F,-[F,B,] |[M:4/4] x8 | %27
 [F,DF]2 [F,CF]2 [F,F]-[F,B,F] [F,A,]2 |[M:5/4] x10 |[M:15/8] x15 |] %30

